images/DF.svg

<svg height="250" viewBox="0 0 250 250" width="250" xmlns="http://www.w3.org/2000/svg"><g fill-rule="evenodd"><path d="m39.0625 187.5v-119.140625h78.203125c29.574219 0 53.632813 24.746094 53.632813 55.164063 0 30.421874-24.058594 55.167968-53.632813 55.167968h-9.394531v-23.429687h9.394531c16.941406 0 30.730469-14.234375 30.730469-31.738281 0-17.496094-13.789063-31.734376-30.730469-31.734376h-55.300781v95.710938zm0 0" fill="#fa9b00"/><path d="m74.191406 218.75v-112.714844h22.710938v89.050782h26.5625c36.785156 0 66.714844-31.441407 66.714844-70.085938s-29.929688-70.085938-66.714844-70.085938h-54.128906v-23.664062h54.128906c49.308594 0 89.425781 42.054688 89.425781 93.75s-40.117187 93.75-89.425781 93.75zm0 0" fill="#242a47"/></g></svg>

<svg xmlns="http://www.w3.org/2000/svg" xmlns:xlink="http://www.w3.org/1999/xlink" width="250px" height="250px" viewBox="0 0 250 250" version="1.1">
<g id="surface1">
<path style=" stroke:none;fill-rule:evenodd;fill:rgb(98.039216%,60.784316%,0%);fill-opacity:1;" d="M 39.0625 187.5 L 39.0625 68.359375 L 117.265625 68.359375 C 146.839844 68.359375 170.898438 93.105469 170.898438 123.523438 C 170.898438 153.945312 146.839844 178.691406 117.265625 178.691406 L 107.871094 178.691406 L 107.871094 155.261719 L 117.265625 155.261719 C 134.207031 155.261719 147.996094 141.027344 147.996094 123.523438 C 147.996094 106.027344 134.207031 91.789062 117.265625 91.789062 L 61.964844 91.789062 L 61.964844 187.5 Z M 39.0625 187.5 "/>
<path style=" stroke:none;fill-rule:evenodd;fill:rgb(14.117648%,16.470589%,27.843139%);fill-opacity:1;" d="M 74.191406 218.75 L 74.191406 106.035156 L 96.902344 106.035156 L 96.902344 195.085938 L 123.464844 195.085938 C 160.25 195.085938 190.179688 163.644531 190.179688 125 C 190.179688 86.355469 160.25 54.914062 123.464844 54.914062 L 69.335938 54.914062 L 69.335938 31.25 L 123.464844 31.25 C 172.773438 31.25 212.890625 73.304688 212.890625 125 C 212.890625 176.695312 172.773438 218.75 123.464844 218.75 Z M 74.191406 218.75 "/>
</g>
</svg>
